frontend/public/logo-scoutr-for-storybook.svg

<?xml version="1.0" encoding="UTF-8"?>
<svg width="350px" height="50px" viewBox="0 0 350 50" version="1.1" xmlns="http://www.w3.org/2000/svg" xmlns:xlink="http://www.w3.org/1999/xlink">
    <title>logo-scoutr-for-storybook</title>
    <g id="logo-scoutr-for-storybook" stroke="none" stroke-width="1" fill="none" fill-rule="evenodd">
        <g id="logo" transform="translate(0, 0)" fill="#212529" fill-rule="nonzero">
            <path d="M10.1511572,32.9333333 L0.00256796287,32.9333333 C-0.0419433935,35.8666667 0.492192883,38.4 1.60497679,40.5333333 C2.7177607,42.6666667 4.22001898,44.4222222 6.11175162,45.8 C8.00348427,47.1777778 10.1845407,48.1888889 12.654921,48.8333333 C15.1253013,49.4777778 17.6735764,49.8 20.2997465,49.8 C23.5490755,49.8 26.4089301,49.4222222 28.8793104,48.6666667 C31.3496907,47.9111111 33.4194687,46.8555556 35.0886446,45.5 C36.7578205,44.1444444 38.0152663,42.5333333 38.8609821,40.6666667 C39.7066978,38.8 40.1295557,36.7777778 40.1295557,34.6 C40.1295557,31.9333333 39.5620359,29.7444444 38.4269963,28.0333333 C37.2919568,26.3222222 35.9454882,24.9555556 34.3875907,23.9333333 C32.8296933,22.9111111 31.260668,22.1666667 29.6805148,21.7 C28.1003617,21.2333333 26.8651715,20.9111111 25.9749444,20.7333333 C22.9926835,19.9777778 20.5779424,19.3555556 18.7307211,18.8666667 C16.8834999,18.3777778 15.4368808,17.8888889 14.3908639,17.4 C13.344847,16.9111111 12.6437932,16.3777778 12.2877023,15.8 C11.9316115,15.2222222 11.753566,14.4666667 11.753566,13.5333333 C11.753566,12.5111111 11.9761228,11.6666667 12.4212364,11 C12.8663499,10.3333333 13.4338697,9.77777778 14.1237958,9.33333333 C14.8137218,8.88888889 15.5815427,8.57777778 16.4272585,8.4 C17.2729742,8.22222222 18.11869,8.13333333 18.9644058,8.13333333 C20.2552351,8.13333333 21.4459139,8.24444444 22.5364421,8.46666667 C23.6269703,8.68888889 24.5950924,9.06666667 25.4408081,9.6 C26.2865239,10.1333333 26.9653221,10.8666667 27.4772027,11.8 C27.9890833,12.7333333 28.2895349,13.9111111 28.3785576,15.3333333 L38.5271469,15.3333333 C38.5271469,12.5777778 38.0041385,10.2333333 36.9581216,8.3 C35.9121047,6.36666667 34.4988691,4.77777778 32.7184149,3.53333333 C30.9379606,2.28888889 28.9015661,1.38888889 26.6092312,0.833333333 C24.3168964,0.277777778 21.924411,0 19.431775,0 C17.2952299,0 15.1586848,0.288888889 13.0221397,0.866666667 C10.8855946,1.44444444 8.97160627,2.33333333 7.28017473,3.53333333 C5.58874319,4.73333333 4.22001898,6.23333333 3.1740021,8.03333333 C2.12798523,9.83333333 1.60497679,11.9555556 1.60497679,14.4 C1.60497679,16.5777778 2.01670684,18.4333333 2.84016693,19.9666667 C3.66362702,21.5 4.74302741,22.7777778 6.07836811,23.8 C7.4137088,24.8222222 8.92709491,25.6555556 10.6185265,26.3 C12.309958,26.9444444 14.0459009,27.4888889 15.8263551,27.9333333 C17.562298,28.4222222 19.2759853,28.8666667 20.9674168,29.2666667 C22.6588483,29.6666667 24.1722345,30.1333333 25.5075752,30.6666667 C26.8429158,31.2 27.9223162,31.8666667 28.7457763,32.6666667 C29.5692364,33.4666667 29.9809665,34.5111111 29.9809665,35.8 C29.9809665,37 29.669387,37.9888889 29.046228,38.7666667 C28.423069,39.5444444 27.6441203,40.1555556 26.7093818,40.6 C25.7746433,41.0444444 24.7731378,41.3444444 23.7048652,41.5 C22.6365927,41.6555556 21.6350872,41.7333333 20.7003487,41.7333333 C19.3204966,41.7333333 17.9851559,41.5666667 16.6943266,41.2333333 C15.4034973,40.9 14.2795855,40.3888889 13.3225914,39.7 C12.3655972,39.0111111 11.5977763,38.1111111 11.0191287,37 C10.440481,35.8888889 10.1511572,34.5333333 10.1511572,32.9333333 Z M65.5937609,26.4 L74.8743787,26.4 C74.7408446,24.1777778 74.2067083,22.2555556 73.2719699,20.6333333 C72.3372314,19.0111111 71.1242969,17.6555556 69.6331665,16.5666667 C68.142036,15.4777778 66.4506045,14.6666667 64.5588719,14.1333333 C62.6671392,13.6 60.6975117,13.3333333 58.6499893,13.3333333 C55.8457738,13.3333333 53.3531379,13.8 51.1720814,14.7333333 C48.991025,15.6666667 47.1438037,16.9666667 45.6304176,18.6333333 C44.1170314,20.3 42.970864,22.2777778 42.1919153,24.5666667 C41.4129665,26.8555556 41.0234922,29.3333333 41.0234922,32 C41.0234922,34.5777778 41.4463501,36.9444444 42.2920658,39.1 C43.1377816,41.2555556 44.3173326,43.1111111 45.8307187,44.6666667 C47.3441048,46.2222222 49.1801982,47.4333333 51.338999,48.3 C53.4977998,49.1666667 55.8680295,49.6 58.4496882,49.6 C63.0343579,49.6 66.7955675,48.4 69.733317,46 C72.6710666,43.6 74.4515208,40.1111111 75.0746798,35.5333333 L65.9275961,35.5333333 C65.6160166,37.6666667 64.8481957,39.3666667 63.6241334,40.6333333 C62.4000711,41.9 60.6530003,42.5333333 58.3829212,42.5333333 C56.9140464,42.5333333 55.6677284,42.2 54.6439672,41.5333333 C53.620206,40.8666667 52.8078738,40.0111111 52.2069705,38.9666667 C51.6060672,37.9222222 51.1720814,36.7555556 50.9050133,35.4666667 C50.6379452,34.1777778 50.5044111,32.9111111 50.5044111,31.6666667 C50.5044111,30.3777778 50.6379452,29.0777778 50.9050133,27.7666667 C51.1720814,26.4555556 51.6283228,25.2555556 52.2737375,24.1666667 C52.9191522,23.0777778 53.7537401,22.1888889 54.7775013,21.5 C55.8012625,20.8111111 57.0698361,20.4666667 58.5832223,20.4666667 C62.6337557,20.4666667 64.9706019,22.4444444 65.5937609,26.4 Z M85.5830692,31.5333333 C85.5830692,30.1555556 85.7166033,28.8 85.9836714,27.4666667 C86.2507396,26.1333333 86.706981,24.9555556 87.3523956,23.9333333 C87.9978103,22.9111111 88.8546539,22.0777778 89.9229265,21.4333333 C90.991199,20.7888889 92.3265397,20.4666667 93.9289485,20.4666667 C95.5313574,20.4666667 96.8778259,20.7888889 97.9683541,21.4333333 C99.0588824,22.0777778 99.9268538,22.9111111 100.572268,23.9333333 C101.217683,24.9555556 101.673925,26.1333333 101.940993,27.4666667 C102.208061,28.8 102.341595,30.1555556 102.341595,31.5333333 C102.341595,32.9111111 102.208061,34.2555556 101.940993,35.5666667 C101.673925,36.8777778 101.217683,38.0555556 100.572268,39.1 C99.9268538,40.1444444 99.0588824,40.9777778 97.9683541,41.6 C96.8778259,42.2222222 95.5313574,42.5333333 93.9289485,42.5333333 C92.3265397,42.5333333 90.991199,42.2222222 89.9229265,41.6 C88.8546539,40.9777778 87.9978103,40.1444444 87.3523956,39.1 C86.706981,38.0555556 86.2507396,36.8777778 85.9836714,35.5666667 C85.7166033,34.2555556 85.5830692,32.9111111 85.5830692,31.5333333 Z M76.1021503,31.5333333 C76.1021503,34.2888889 76.5250082,36.7777778 77.370724,39 C78.2164398,41.2222222 79.4182464,43.1222222 80.9761438,44.7 C82.5340413,46.2777778 84.4035183,47.4888889 86.5845747,48.3333333 C88.7656312,49.1777778 91.2137558,49.6 93.9289485,49.6 C96.6441413,49.6 99.1033937,49.1777778 101.306706,48.3333333 C103.510018,47.4888889 105.390623,46.2777778 106.94852,44.7 C108.506418,43.1222222 109.708224,41.2222222 110.55394,39 C111.399656,36.7777778 111.822514,34.2888889 111.822514,31.5333333 C111.822514,28.7777778 111.399656,26.2777778 110.55394,24.0333333 C109.708224,21.7888889 108.506418,19.8777778 106.94852,18.3 C105.390623,16.7222222 103.510018,15.5 101.306706,14.6333333 C99.1033937,13.7666667 96.6441413,13.3333333 93.9289485,13.3333333 C91.2137558,13.3333333 88.7656312,13.7666667 86.5845747,14.6333333 C84.4035183,15.5 82.5340413,16.7222222 80.9761438,18.3 C79.4182464,19.8777778 78.2164398,21.7888889 77.370724,24.0333333 C76.5250082,26.2777778 76.1021503,28.7777778 76.1021503,31.5333333 Z M147.101473,48.7333333 L147.101473,14.2666667 L137.620554,14.2666667 L137.620554,32.3333333 C137.620554,35.8444444 137.041907,38.3666667 135.884611,39.9 C134.727316,41.4333333 132.857839,42.2 130.27618,42.2 C128.006101,42.2 126.425948,41.5 125.535721,40.1 C124.645494,38.7 124.20038,36.5777778 124.20038,33.7333333 L124.20038,14.2666667 L114.719461,14.2666667 L114.719461,35.4666667 C114.719461,37.6 114.908635,39.5444444 115.286981,41.3 C115.665328,43.0555556 116.32187,44.5444444 117.256609,45.7666667 C118.191347,46.9888889 119.471049,47.9333333 121.095713,48.6 C122.720378,49.2666667 124.801284,49.6 127.338431,49.6 C129.341442,49.6 131.299942,49.1555556 133.21393,48.2666667 C135.127918,47.3777778 136.685816,45.9333333 137.887622,43.9333333 L138.087923,43.9333333 L138.087923,48.7333333 L147.101473,48.7333333 Z M163.084759,14.2666667 L163.084759,3.93333333 L153.60384,3.93333333 L153.60384,14.2666667 L147.861875,14.2666667 L147.861875,20.6 L153.60384,20.6 L153.60384,40.9333333 C153.60384,42.6666667 153.893164,44.0666667 154.471812,45.1333333 C155.050459,46.2 155.840536,47.0222222 156.842042,47.6 C157.843547,48.1777778 159.000842,48.5666667 160.313927,48.7666667 C161.627012,48.9666667 163.017992,49.0666667 164.486867,49.0666667 C165.421606,49.0666667 166.3786,49.0444444 167.35785,49 C168.337099,48.9555556 169.227326,48.8666667 170.028531,48.7333333 L170.028531,41.4 C169.583417,41.4888889 169.116048,41.5555556 168.626423,41.6 C168.136798,41.6444444 167.624918,41.6666667 167.090781,41.6666667 C165.488373,41.6666667 164.4201,41.4 163.885964,40.8666667 C163.351827,40.3333333 163.084759,39.2666667 163.084759,37.6666667 L163.084759,20.6 L170.028531,20.6 L170.028531,14.2666667 L163.084759,14.2666667 Z M171.32307,14.2666667 L171.32307,48.7333333 L180.803988,48.7333333 L180.803988,33.2 C180.803988,31.6444444 180.959778,30.2 181.271358,28.8666667 C181.582937,27.5333333 182.105946,26.3666667 182.840383,25.3666667 C183.57482,24.3666667 184.542942,23.5777778 185.744749,23 C186.946556,22.4222222 188.41543,22.1333333 190.151373,22.1333333 C190.730021,22.1333333 191.330924,22.1666667 191.954083,22.2333333 C192.577242,22.3 193.111379,22.3777778 193.556492,22.4666667 L193.556492,13.6666667 C192.799799,13.4444444 192.109873,13.3333333 191.486714,13.3333333 C190.284907,13.3333333 189.127612,13.5111111 188.014828,13.8666667 C186.902044,14.2222222 185.856027,14.7222222 184.876778,15.3666667 C183.897528,16.0111111 183.029556,16.7888889 182.272863,17.7 C181.51617,18.6111111 180.915267,19.6 180.470153,20.6666667 L180.336619,20.6666667 L180.336619,14.2666667 L171.32307,14.2666667 Z"></path>
        </g>
        <rect id="Rectangle" fill-opacity="0" fill="#1400FF" x="340" y="40" width="10" height="10"></rect>
    </g>
</svg>

<svg xmlns="http://www.w3.org/2000/svg" width="350" height="50" fill-rule="evenodd" xmlns:v="https://vecta.io/nano"><path d="M10.151 32.933H.003c-.045 2.933.49 5.467 1.602 7.6S4.22 44.422 6.112 45.8s4.073 2.389 6.543 3.033a30.16 30.16 0 0 0 7.645.967c3.249 0 6.109-.378 8.58-1.133s4.54-1.811 6.209-3.167 2.927-2.967 3.772-4.833 1.269-3.889 1.269-6.067c0-2.667-.568-4.856-1.703-6.567s-2.482-3.078-4.039-4.1-3.127-1.767-4.707-2.233l-3.706-.967-7.244-1.867c-1.847-.489-3.294-.978-4.34-1.467s-1.747-1.022-2.103-1.6-.534-1.333-.534-2.267c0-1.022.223-1.867.668-2.533s1.013-1.222 1.703-1.667 1.458-.756 2.303-.933 1.691-.267 2.537-.267c1.291 0 2.482.111 3.572.333s2.059.6 2.904 1.133 1.525 1.267 2.036 2.2.812 2.111.901 3.533h10.149c0-2.756-.523-5.1-1.569-7.033s-2.459-3.522-4.24-4.767-3.817-2.144-6.109-2.7S21.924 0 19.432 0a24.46 24.46 0 0 0-6.41.867c-2.137.578-4.051 1.467-5.742 2.667s-3.06 2.7-4.106 4.5-1.569 3.922-1.569 6.367c0 2.178.412 4.033 1.235 5.567s1.903 2.811 3.238 3.833 2.849 1.856 4.54 2.5a45.7 45.7 0 0 0 5.208 1.633l5.141 1.333c1.691.4 3.205.867 4.54 1.4s2.415 1.2 3.238 2 1.235 1.844 1.235 3.133c0 1.2-.312 2.189-.935 2.967s-1.402 1.389-2.337 1.833-1.936.744-3.005.9-2.07.233-3.005.233c-1.38 0-2.715-.167-4.006-.5s-2.415-.844-3.372-1.533-1.725-1.589-2.303-2.7-.868-2.467-.868-4.067zM65.594 26.4h9.281c-.134-2.222-.668-4.144-1.602-5.767a13.03 13.03 0 0 0-3.639-4.067c-1.491-1.089-3.183-1.9-5.074-2.433s-3.861-.8-5.909-.8c-2.804 0-5.297.467-7.478 1.4s-4.028 2.233-5.542 3.9-2.66 3.644-3.439 5.933-1.168 4.767-1.168 7.433c0 2.578.423 4.944 1.269 7.1s2.025 4.011 3.539 5.567 3.349 2.767 5.508 3.633 4.529 1.3 7.111 1.3c4.585 0 8.346-1.2 11.284-3.6s4.718-5.889 5.341-10.467h-9.147c-.312 2.133-1.079 3.833-2.303 5.1s-2.971 1.9-5.241 1.9c-1.469 0-2.715-.333-3.739-1s-1.836-1.522-2.437-2.567-1.035-2.211-1.302-3.5-.401-2.556-.401-3.8a19.5 19.5 0 0 1 .401-3.9c.267-1.311.723-2.511 1.369-3.6s1.48-1.978 2.504-2.667 2.292-1.033 3.806-1.033c4.051 0 6.387 1.978 7.011 5.933zm19.989 5.133c0-1.378.134-2.733.401-4.067s.723-2.511 1.369-3.533 1.502-1.856 2.571-2.5 2.404-.967 4.006-.967 2.949.322 4.039.967 1.958 1.478 2.604 2.5 1.102 2.2 1.369 3.533.401 2.689.401 4.067-.134 2.722-.401 4.033-.723 2.489-1.369 3.533a7.2 7.2 0 0 1-2.604 2.5c-1.091.622-2.437.933-4.039.933s-2.938-.311-4.006-.933-1.925-1.456-2.571-2.5-1.102-2.222-1.369-3.533-.401-2.656-.401-4.033zm-9.481 0c0 2.756.423 5.244 1.269 7.467s2.048 4.122 3.605 5.7 3.427 2.789 5.608 3.633 4.629 1.267 7.344 1.267 5.174-.422 7.378-1.267 4.084-2.056 5.642-3.633 2.76-3.478 3.605-5.7 1.269-4.711 1.269-7.467-.423-5.256-1.269-7.5-2.048-4.156-3.605-5.733-3.439-2.8-5.642-3.667-4.663-1.3-7.378-1.3-5.163.433-7.344 1.3-4.051 2.089-5.608 3.667-2.76 3.489-3.605 5.733-1.269 4.744-1.269 7.5zm70.999 17.2V14.267h-9.481v18.067c0 3.511-.579 6.033-1.736 7.567s-3.027 2.3-5.608 2.3c-2.27 0-3.85-.7-4.74-2.1s-1.335-3.522-1.335-6.367V14.267h-9.481v21.2c0 2.133.189 4.078.568 5.833s1.035 3.244 1.97 4.467 2.214 2.167 3.839 2.833 3.706 1 6.243 1c2.003 0 3.962-.444 5.875-1.333s3.472-2.333 4.674-4.333h.2v4.8h9.014zm15.983-34.467V3.933h-9.481v10.333h-5.742V20.6h5.742v20.333c0 1.733.289 3.133.868 4.2s1.369 1.889 2.37 2.467 2.159.967 3.472 1.167 2.704.3 4.173.3a63.34 63.34 0 0 0 2.871-.067c.979-.044 1.869-.133 2.671-.267V41.4a13.3 13.3 0 0 1-1.402.2 17 17 0 0 1-1.536.067c-1.602 0-2.671-.267-3.205-.8s-.801-1.6-.801-3.2V20.6h6.944v-6.333h-6.944zm8.238 0v34.467h9.481V33.2c0-1.556.156-3 .467-4.333s.835-2.5 1.569-3.5 1.703-1.789 2.904-2.367 2.671-.867 4.407-.867c.579 0 1.18.033 1.803.1s1.157.144 1.602.233v-8.8c-.757-.222-1.447-.333-2.07-.333-1.202 0-2.359.178-3.472.533a12.73 12.73 0 0 0-3.138 1.5c-.979.644-1.847 1.422-2.604 2.333a11.64 11.64 0 0 0-1.803 2.967h-.134v-6.4h-9.014z" fill="#212529" fill-rule="nonzero"/><path fill-opacity="0" fill="#1400ff" d="M340 40h10v10h-10z"/></svg>
